X: 16565
T: Hamish Henderson's Refusal
R: strathspey
M: 4/4
K: Dminor
|:D2 C>D A,2 A,>G,|A,<D E>F D3-D/E/|F>C F>A (3GAB A>G|A<d d>e ^c3-c/A/|
d>e f<a e<c c>A|(3Bcd A>F E3 F/E/|D2 C>D A,2 A,>G,|A,<D E>F D3-D/D/:|
|:E2 E>D E<c c2|(3BAG A>B d2 d>e|f>e (3fga a>g g>f|f>e e<d e3-e/A/|
B>A (3GAB A<d d2|F<d d<F E3 F/E/|D2 C>D A,2 A,>G,|1 A,<D E>F D3- D/D/:|2 A,<D E>F D4||

